projects/js-packages/social-logos/src/svg/dribbble.svg

<svg enable-background="new 0 0 24 24" viewBox="0 0 24 24" xmlns="http://www.w3.org/2000/svg"><path d="m12 22c-5.514 0-10-4.486-10-10s4.486-10 10-10 10 4.486 10 10-4.486 10-10 10zm8.434-8.631c-.292-.092-2.644-.794-5.32-.365 1.117 3.07 1.572 5.57 1.659 6.09 1.916-1.296 3.28-3.349 3.661-5.725zm-5.098 6.507c-.127-.749-.623-3.361-1.822-6.477-.019.006-.038.013-.056.019-4.818 1.679-6.547 5.02-6.701 5.334 1.448 1.129 3.268 1.803 5.243 1.803 1.183-0 2.311-.242 3.336-.679zm-9.682-2.152c.193-.331 2.538-4.213 6.943-5.637.111-.036.224-.07.337-.102-.214-.485-.448-.971-.692-1.45-4.266 1.277-8.405 1.223-8.778 1.216-.003.087-.004.174-.004.261-.002 2.195.83 4.198 2.194 5.712zm-2.015-7.46c.382.005 3.901.02 7.897-1.041-1.415-2.516-2.942-4.631-3.167-4.94-2.39 1.127-4.176 3.33-4.73 5.981zm6.359-6.555c.236.316 1.787 2.429 3.187 5 3.037-1.138 4.323-2.867 4.477-3.085-1.508-1.338-3.492-2.153-5.662-2.153-.689 0-1.359.083-2.002.238zm8.614 2.903c-.18.243-1.612 2.078-4.77 3.367.199.407.389.821.567 1.237.063.148.124.295.184.441 2.842-.357 5.666.215 5.948.275-.019-2.016-.74-3.867-1.929-5.32z"/></svg>

<?xml version="1.0" encoding="iso-8859-1"?>
<!-- Generator: Adobe Illustrator 19.2.1, SVG Export Plug-In . SVG Version: 6.00 Build 0)  -->
<svg version="1.1" xmlns="http://www.w3.org/2000/svg" xmlns:xlink="http://www.w3.org/1999/xlink" x="0px" y="0px"
	 viewBox="0 0 24 24" style="enable-background:new 0 0 24 24;" xml:space="preserve">
<g id="dribbble">
	<path d="M12,22C6.486,22,2,17.514,2,12S6.486,2,12,2c5.514,0,10,4.486,10,10S17.514,22,12,22z M20.434,13.369
		c-0.292-0.092-2.644-0.794-5.32-0.365c1.117,3.07,1.572,5.57,1.659,6.09C18.689,17.798,20.053,15.745,20.434,13.369z
		 M15.336,19.876c-0.127-0.749-0.623-3.361-1.822-6.477c-0.019,0.006-0.038,0.013-0.056,0.019c-4.818,1.679-6.547,5.02-6.701,5.334
		c1.448,1.129,3.268,1.803,5.243,1.803C13.183,20.555,14.311,20.313,15.336,19.876z M5.654,17.724
		c0.193-0.331,2.538-4.213,6.943-5.637c0.111-0.036,0.224-0.07,0.337-0.102c-0.214-0.485-0.448-0.971-0.692-1.45
		c-4.266,1.277-8.405,1.223-8.778,1.216c-0.003,0.087-0.004,0.174-0.004,0.261C3.458,14.207,4.29,16.21,5.654,17.724z M3.639,10.264
		c0.382,0.005,3.901,0.02,7.897-1.041c-1.415-2.516-2.942-4.631-3.167-4.94C5.979,5.41,4.193,7.613,3.639,10.264z M9.998,3.709
		c0.236,0.316,1.787,2.429,3.187,5c3.037-1.138,4.323-2.867,4.477-3.085C16.154,4.286,14.17,3.471,12,3.471
		C11.311,3.471,10.641,3.554,9.998,3.709z M18.612,6.612C18.432,6.855,17,8.69,13.842,9.979c0.199,0.407,0.389,0.821,0.567,1.237
		c0.063,0.148,0.124,0.295,0.184,0.441c2.842-0.357,5.666,0.215,5.948,0.275C20.522,9.916,19.801,8.065,18.612,6.612z"/>
</g>
<g id="Layer_1">
</g>
</svg>
